;FLAVOR:Marlin
;TIME:4443
;Filament used: 3.34827m
;Layer height: 0.2
;MINX:22.235
;MINY:27.26
;MINZ:0.2
;MAXX:177.622
;MAXY:174.801
;MAXZ:13.2
;Generated with Cura_SteamEngine 5.4.0
M140 S60
M105
M190 S60
M104 S220
M105
M109 S220
M82 ;absolute extrusion mode
G28 ; home all axes
 M117 Purge extruder
 G92 E0 ; reset extruder
 G1 Z1.0 F3000 ; move z up little to prevent scratching of surface
 G1 X2 Y20 Z0.3 F5000.0 ; move to start-line position
 G1 X2 Y175.0 Z0.3 F1500.0 E15 ; draw 1st line
 G1 X2 Y175.0 Z0.4 F5000.0 ; move to side a little
 G1 X2 Y20 Z0.4 F1500.0 E30 ; draw 2nd line
 G92 E0 ; reset extruder
 G1 Z1.0 F3000 ; move z up little to prevent scratching of surface
G92 E0
G92 E0
G1 F2400 E-1
;LAYER_COUNT:66
;LAYER:0
M107
M204 S500
M205 X8 Y8
G1 F240 Z0.6
;MESH:???????????????????? ?????? ?????????????? ?? ??????????????.stl
G0 F6000 X103.308 Y81.811 Z0.6
M204 S1000
;TYPE:WALL-OUTER
G1 F240 Z0.2
G1 F2400 E0
G1 F1200 X103.448 Y81.792 E0.00543
G1 X103.558 Y81.67 E0.01174
G1 X105.583 Y70.189 E0.45959
G1 X105.523 Y70.036 E0.46591
G1 X105.399 Y69.97 E0.4713
G1 X76.593 Y69.968 E1.5779
G1 X76.499 Y69.988 E1.58159
G1 X76.423 Y70.039 E1.58511
G1 X76.375 Y70.149 E1.58972
G1 X76.097 Y71.756 E1.65237
G1 X76.106 Y71.822 E1.65493
G1 X76.161 Y71.913 E1.65901
G1 X76.241 Y71.964 E1.66266
G1 X103.308 Y81.811 E2.76912
M204 S500
G1 F2400 E1.76912
G1 F240 Z0.6
G0 F6000 X96.676 Y94.343 Z0.6
M204 S1000
G1 F240 Z0.2
G1 F2400 E2.76912
G1 F1200 X96.822 Y94.266 E2.77546
G1 X102.648 Y84.166 E3.22338
G1 X102.643 Y84.001 E3.22972
G1 X102.55 Y83.897 E3.23508
G1 X75.484 Y74.045 E4.34157
G1 X75.388 Y74.032 E4.34529
G1 X75.287 Y74.067 E4.3494
G1 X75.216 Y74.141 E4.35334
G1 X74.404 Y75.553 E4.41591
G1 X74.392 Y75.657 E4.41993
G1 X74.411 Y75.723 E4.42257
G1 X74.469 Y75.798 E4.42621
G1 X96.538 Y94.313 E5.53285
G1 X96.676 Y94.343 E5.53827
M204 S500
G1 F2400 E4.53827
G1 F240 Z0.6
G0 F6000 X86.017 Y103.817 Z0.6
M204 S1000
G1 F240 Z0.2
G1 F2400 E5.53827
G1 F1200 X86.211 Y103.772 E5.54592
G1 X95.112 Y96.299 E5.99239
G1 X95.163 Y96.143 E5.9987
G1 X95.11 Y96.013 E6.00409
G1 X73.047 Y77.496 E7.1106
G1 X72.963 Y77.452 E7.11424
G1 X72.855 Y77.45 E7.11839
G1 X72.763 Y77.496 E7.12234
G1 X71.516 Y78.546 E7.18497
G1 X71.47 Y78.638 E7.18892
G1 X71.465 Y78.708 E7.19162
G1 X71.494 Y78.798 E7.19525
G1 X85.898 Y103.743 E8.30181
G1 X86.017 Y103.817 E8.30719
M204 S500
G1 F2400 E7.30719
G1 F240 Z0.6
G0 F6000 X72.962 Y109.098 Z0.6
M204 S1000
G1 F240 Z0.2
G1 F2400 E8.30719
G1 F1200 X72.962 Y109.098
G1 X83.879 Y105.122 E8.75352
G1 X83.981 Y104.994 E8.75981
G1 X83.976 Y104.853 E8.76523
G1 X69.576 Y79.906 E9.87177
G1 X69.512 Y79.835 E9.87544
G1 X69.413 Y79.797 E9.87952
G1 X69.309 Y79.809 E9.88354
G1 X67.778 Y80.368 E9.94615
G1 X67.726 Y80.409 E9.9487
G1 X67.675 Y80.502 E9.95277
G1 X67.671 Y80.598 E9.95646
G1 X72.677 Y108.965 E11.06303
G1 X72.764 Y109.075 E11.06842
G1 X72.962 Y109.098 E11.07608
M204 S500
G1 F2400 E10.07608
G1 F240 Z0.6
G0 F6000 X71.813 Y110.461 Z0.6
M204 S1000
G1 F240 Z0.2
G1 F2400 E11.07608
G1 F1200 X57.143 Y110.461 E11.63963
G1 X43.355 Y105.443 E12.20329
G1 X32.118 Y96.014 E12.7668
G1 X24.783 Y83.306 E13.33047
G1 X22.235 Y68.86 E13.89399
G1 X24.783 Y54.416 E14.45743
G1 X32.122 Y41.705 E15.02127
G1 X43.356 Y32.278 E15.58465
G1 X57.143 Y27.26 E16.14827
G1 X71.813 Y27.26 E16.71182
G1 X85.6 Y32.278 E17.27545
G1 X96.834 Y41.705 E17.83882
G1 X104.173 Y54.416 E18.40267
G1 X106.721 Y68.86 E18.96611
G1 X104.173 Y83.306 E19.52962
G1 X96.838 Y96.014 E20.09329
G1 X85.601 Y105.443 E20.6568
G1 X71.813 Y110.461 E21.22046
M204 S500
G1 F2400 E20.22046
G1 F240 Z0.6
G0 F6000 X70.309 Y109.571 Z0.6
M204 S1000
G1 F240 Z0.2
G1 F2400 E21.22046
G1 F1200 X70.449 Y109.484 E21.2268
G1 X70.491 Y109.35 E21.23219
G1 X65.49 Y80.982 E22.33876
G1 X65.454 Y80.895 E22.34238
G1 X65.391 Y80.829 E22.34589
G1 X65.273 Y80.801 E22.35055
G1 X63.645 Y80.804 E22.41309
G1 X63.582 Y80.825 E22.41564
G1 X63.502 Y80.894 E22.4197
G1 X63.466 Y80.982 E22.42335
G1 X58.465 Y109.35 E23.52992
G1 X58.507 Y109.484 E23.53532
G1 X58.685 Y109.573 E23.54296
G1 X70.309 Y109.571 E23.9895
M204 S500
G1 F2400 E22.9895
G1 F240 Z0.6
G0 F6000 X56.192 Y109.075 Z0.6
M204 S1000
G1 F240 Z0.2
G1 F2400 E23.9895
G1 F1200 X56.279 Y108.965 E23.99489
G1 X61.285 Y80.598 E25.10146
G1 X61.281 Y80.502 E25.10515
G1 X61.23 Y80.409 E25.10923
G1 X61.144 Y80.352 E25.11319
G1 X59.647 Y79.809 E25.17436
G1 X59.543 Y79.797 E25.17839
G1 X59.444 Y79.835 E25.18246
G1 X59.38 Y79.905 E25.1861
G1 X44.98 Y104.853 E26.29268
G1 X44.975 Y104.994 E26.2981
G1 X45.111 Y105.138 E26.30571
G1 X56.031 Y109.108 E26.75207
G1 X56.192 Y109.075 E26.75838
M204 S500
G1 F2400 E25.75838
G1 F240 Z0.6
G0 F6000 X42.939 Y103.817 Z0.6
M204 S1000
G1 F240 Z0.2
G1 F2400 E26.75838
G1 F1200 X43.058 Y103.743 E26.76377
G1 X57.462 Y78.799 E27.87029
G1 X57.491 Y78.708 E27.87396
G1 X57.486 Y78.638 E27.87666
G1 X57.44 Y78.545 E27.88064
G1 X56.194 Y77.496 E27.94321
G1 X56.102 Y77.45 E27.94716
G1 X55.994 Y77.452 E27.95131
G1 X55.91 Y77.496 E27.95496
G1 X33.846 Y96.013 E29.06149
G1 X33.793 Y96.143 E29.06689
G1 X33.871 Y96.326 E29.07453
G1 X42.776 Y103.794 E29.52099
G1 X42.939 Y103.817 E29.52732
M204 S500
G1 F2400 E28.52732
G1 F240 Z0.6
G0 F6000 X32.418 Y94.313 Z0.6
M204 S1000
G1 F240 Z0.2
G1 F2400 E29.52732
G1 F1200 X54.487 Y75.798 E30.63395
G1 X54.545 Y75.723 E30.63759
G1 X54.564 Y75.657 E30.64023
G1 X54.553 Y75.553 E30.64425
G1 X53.74 Y74.141 E30.70684
G1 X53.669 Y74.067 E30.71078
G1 X53.568 Y74.032 E30.71489
G1 X53.473 Y74.045 E30.71857
G1 X26.407 Y83.898 E31.82508
G1 X26.313 Y84.002 E31.83046
G1 X26.324 Y84.2 E31.83808
G1 X32.136 Y94.265 E32.28457
G1 X32.28 Y94.342 E32.29084
G1 X32.418 Y94.313 E32.29626
M204 S500
G1 F2400 E31.29626
G1 F240 Z0.6
G0 F6000 X53.635 Y63.671 Z0.6
M204 S1000
G1 F240 Z0.2
G1 F2400 E32.29626
G1 F1200 X53.719 Y63.61 E32.30024
G1 X54.536 Y62.202 E32.36278
G1 X54.57 Y62.084 E32.3675
G1 X54.545 Y61.997 E32.37097
G1 X54.501 Y61.935 E32.37389
G1 X32.418 Y43.409 E33.48121
G1 X32.28 Y43.379 E33.48664
G1 X32.114 Y43.488 E33.49427
G1 X26.308 Y53.554 E33.94067
G1 X26.313 Y53.719 E33.94701
G1 X26.406 Y53.823 E33.95237
G1 X53.492 Y63.681 E35.05967
G1 X53.568 Y63.688 E35.0626
G1 X53.635 Y63.671 E35.06525
M204 S500
G1 F2400 E34.06525
G1 F240 Z0.6
G0 F6000 X52.456 Y67.732 Z0.6
M204 S1000
G1 F240 Z0.2
G1 F2400 E35.06525
G1 F1200 X52.456 Y67.732
G1 X52.513 Y67.694 E35.06788
G1 X52.571 Y67.608 E35.07187
G1 X52.858 Y66.003 E35.1345
G1 X52.852 Y65.899 E35.13851
G1 X52.797 Y65.808 E35.14259
G1 X52.734 Y65.764 E35.14554
G1 X25.648 Y55.909 E36.2528
G1 X25.508 Y55.929 E36.25823
G1 X25.39 Y56.087 E36.2658
G1 X23.373 Y67.531 E36.71221
G1 X23.433 Y67.684 E36.71852
G1 X23.557 Y67.75 E36.72392
G1 X52.364 Y67.752 E37.83055
G1 X52.456 Y67.732 E37.83417
M204 S500
G1 F2400 E36.83417
G1 F240 Z0.6
G0 F6000 X52.715 Y71.964 Z0.6
M204 S1000
G1 F240 Z0.2
G1 F2400 E37.83417
G1 F1200 X52.795 Y71.913 E37.83781
G1 X52.85 Y71.822 E37.8419
G1 X52.86 Y71.756 E37.84446
G1 X52.581 Y70.149 E37.90712
G1 X52.533 Y70.039 E37.91173
G1 X52.457 Y69.988 E37.91524
G1 X52.364 Y69.968 E37.9189
G1 X23.557 Y69.97 E39.02553
G1 X23.433 Y70.036 E39.03093
G1 X23.376 Y70.227 E39.03859
G1 X25.4 Y81.67 E39.485
G1 X25.508 Y81.793 E39.49129
G1 X25.648 Y81.812 E39.49671
G1 X52.715 Y71.964 E40.60319
M204 S500
G1 F2400 E39.60319
G1 F240 Z0.6
G0 F6000 X66.092 Y78.009 Z0.6
M204 S1000
G1 F240 Z0.2
G1 F2400 E40.60319
G1 F1200 X69.124 Y76.906 E40.72713
G1 X71.594 Y74.833 E40.85101
G1 X73.207 Y72.037 E40.97501
G1 X73.769 Y68.86 E41.09895
G1 X73.207 Y65.683 E41.22289
G1 X71.594 Y62.887 E41.34689
G1 X69.123 Y60.815 E41.47077
G1 X66.093 Y59.711 E41.59466
G1 X62.864 Y59.711 E41.7187
G1 X59.833 Y60.815 E41.84262
G1 X57.362 Y62.887 E41.9665
G1 X55.749 Y65.683 E42.0905
G1 X55.187 Y68.86 E42.21444
G1 X55.749 Y72.037 E42.33838
G1 X57.362 Y74.833 E42.46239
G1 X59.832 Y76.906 E42.58626
G1 X62.827 Y77.999 E42.70874
G1 X62.903 Y78.013 E42.71171
G1 X66.092 Y78.009 E42.83421
M204 S500
G1 F2400 E41.83421
G1 F240 Z0.6
G0 F6000 X76.593 Y67.752 Z0.6
M204 S1000
G1 F240 Z0.2
G1 F2400 E42.83421
G1 F1200 X76.593 Y67.752
G1 X105.399 Y67.75 E43.94081
G1 X105.523 Y67.684 E43.94621
G1 X105.58 Y67.493 E43.95386
G1 X103.566 Y56.087 E44.39881
G1 X103.448 Y55.928 E44.40641
G1 X103.308 Y55.909 E44.41184
G1 X76.222 Y65.764 E45.51909
G1 X76.159 Y65.808 E45.52205
G1 X76.104 Y65.899 E45.52613
G1 X76.098 Y66.003 E45.53013
G1 X76.386 Y67.608 E45.59277
G1 X76.443 Y67.694 E45.59674
G1 X76.5 Y67.732 E45.59937
G1 X76.593 Y67.752 E45.60302
M204 S500
G1 F2400 E44.60302
G1 F240 Z0.6
G0 F6000 X75.464 Y63.681 Z0.6
M204 S1000
G1 F240 Z0.2
G1 F2400 E45.60302
G1 F1200 X75.464 Y63.681
G1 X102.549 Y53.823 E46.71028
G1 X102.643 Y53.718 E46.71569
G1 X102.632 Y53.519 E46.72335
G1 X96.842 Y43.488 E47.16828
G1 X96.675 Y43.379 E47.17594
G1 X96.538 Y43.409 E47.18133
G1 X74.455 Y61.935 E48.28865
G1 X74.411 Y61.997 E48.29157
G1 X74.386 Y62.084 E48.29505
G1 X74.42 Y62.202 E48.29977
G1 X75.238 Y63.61 E48.36232
G1 X75.287 Y63.653 E48.36483
G1 X75.388 Y63.688 E48.36893
G1 X75.464 Y63.681 E48.37186
M204 S500
G1 F2400 E47.37186
G1 F240 Z0.6
G0 F6000 X72.963 Y60.268 Z0.6
M204 S1000
G1 F240 Z0.2
G1 F2400 E48.37186
G1 F1200 X73.032 Y60.236 E48.37479
G1 X95.11 Y41.708 E49.48201
G1 X95.163 Y41.578 E49.4874
G1 X95.085 Y41.395 E49.49504
G1 X86.18 Y33.927 E49.94151
G1 X86.017 Y33.904 E49.94783
G1 X85.898 Y33.978 E49.95321
G1 X71.485 Y58.938 E51.06044
G1 X71.465 Y59.012 E51.06339
G1 X71.472 Y59.104 E51.06693
G1 X71.543 Y59.201 E51.07155
G1 X72.794 Y60.246 E51.13417
G1 X72.855 Y60.27 E51.13669
G1 X72.963 Y60.268 E51.14083
M204 S500
G1 F2400 E50.14083
G1 F240 Z0.6
G0 F6000 X69.413 Y57.923 Z0.6
M204 S1000
G1 F240 Z0.2
G1 F2400 E51.14083
G1 F1200 X69.512 Y57.885 E51.14491
G1 X69.566 Y57.831 E51.14784
G1 X83.975 Y32.868 E52.25509
G1 X83.981 Y32.727 E52.26052
G1 X83.845 Y32.582 E52.26815
G1 X72.925 Y28.612 E52.71451
G1 X72.764 Y28.645 E52.72083
G1 X72.678 Y28.756 E52.72622
G1 X67.668 Y57.141 E53.8335
G1 X67.675 Y57.218 E53.83647
G1 X67.726 Y57.311 E53.84054
G1 X67.812 Y57.368 E53.84451
G1 X69.346 Y57.921 E53.90715
G1 X69.413 Y57.923 E53.90972
M204 S500
G1 F2400 E52.90972
G1 F240 Z0.6
G0 F6000 X65.311 Y56.917 Z0.6
M204 S1000
G1 F240 Z0.2
G1 F2400 E53.90972
G1 F1200 X65.406 Y56.876 E53.9137
G1 X65.454 Y56.826 E53.91636
G1 X65.486 Y56.757 E53.91928
G1 X70.491 Y28.37 E55.0266
G1 X70.449 Y28.236 E55.032
G1 X70.271 Y28.147 E55.03964
G1 X58.647 Y28.149 E55.48618
G1 X58.507 Y28.236 E55.49251
G1 X58.465 Y28.37 E55.49791
G1 X63.47 Y56.757 E56.60523
G1 X63.502 Y56.826 E56.60815
G1 X63.565 Y56.892 E56.61166
G1 X63.683 Y56.92 E56.61631
G1 X65.311 Y56.917 E56.67885
M204 S500
G1 F2400 E55.67885
G1 F240 Z0.6
G0 F6000 X59.61 Y57.922 Z0.6
M204 S1000
G1 F240 Z0.2
G1 F2400 E56.67885
G1 F1200 X59.61 Y57.922
G1 X61.178 Y57.352 E56.74295
G1 X61.23 Y57.311 E56.74549
G1 X61.281 Y57.218 E56.74956
G1 X61.288 Y57.141 E56.75254
G1 X56.278 Y28.756 E57.85981
G1 X56.192 Y28.645 E57.86521
G1 X55.994 Y28.622 E57.87286
G1 X45.077 Y32.598 E58.31919
G1 X44.975 Y32.726 E58.32548
G1 X44.981 Y32.868 E58.33094
G1 X59.39 Y57.831 E59.43819
G1 X59.444 Y57.885 E59.44113
G1 X59.506 Y57.915 E59.44377
G1 X59.61 Y57.922 E59.44778
M204 S500
G1 F2400 E58.44778
G1 F240 Z0.6
G0 F6000 X56.163 Y60.247 Z0.6
M204 S1000
G1 F240 Z0.2
G1 F2400 E59.44778
G1 F1200 X57.413 Y59.201 E59.51039
G1 X57.484 Y59.104 E59.51501
G1 X57.491 Y59.012 E59.51855
G1 X57.471 Y58.938 E59.5215
G1 X43.058 Y33.978 E60.62873
G1 X42.939 Y33.904 E60.63411
G1 X42.745 Y33.949 E60.64176
G1 X33.844 Y41.422 E61.08823
G1 X33.793 Y41.578 E61.09453
G1 X33.845 Y41.708 E61.09991
G1 X55.925 Y60.236 E62.20719
G1 X55.994 Y60.268 E62.21012
G1 X56.064 Y60.275 E62.21282
G1 X56.163 Y60.247 E62.21677
M204 S500
G1 F2400 E61.21677
G1 F240 Z0.6
G0 F6000 X33.504 Y41.129 Z0.6
M204 S1000
;TYPE:SKIN
G1 F240 Z0.2
G1 F2400 E62.21677
G1 F976 X42.452 Y33.615 E62.76867
M204 S500
G1 F2400 E61.76867
G1 F240 Z0.6
G0 F6000 X44.877 Y32.2 Z0.6
M204 S1000
G1 F240 Z0.2
G1 F2400 E62.76867
G1 F983.2 X55.832 Y28.208 E63.31533
M204 S500
G1 F2400 E62.31533
G1 F240 Z0.6
G0 F6000 X58.574 Y27.708 Z0.6
M204 S1000
G1 F240 Z0.2
G1 F2400 E63.31533
G1 F979.6 X70.259 Y27.704 E63.86521
M204 S500
G1 F2400 E62.86521
G1 F240 Z0.6
G0 F6000 X86.451 Y33.573 Z0.6
M204 S1000
G1 F240 Z0.2
G1 F2400 E63.86521
G1 F983.2 X95.363 Y41.05 E64.41062
M204 S500
G1 F2400 E63.41062
G1 F240 Z0.6
G0 F6000 X104.006 Y56.021 Z0.6
M204 S1000
G1 F240 Z0.2
G1 F2400 E64.41062
G1 F986.9 X106.015 Y67.405 E64.95058
M204 S500
G1 F2400 E63.95058
G1 F240 Z0.6
G0 F6000 X106.033 Y70.202 Z0.6
M204 S1000
G1 F240 Z0.2
G1 F2400 E64.95058
G1 F968.8 X103.981 Y81.817 E65.51181
M204 S500
G1 F2400 E64.51181
G1 F240 Z0.6
G0 F6000 X103.067 Y84.326 Z0.6
M204 S1000
G1 F240 Z0.2
G1 F2400 E65.51181
G1 F976 X97.193 Y94.508 E66.06704
M204 S500
G1 F2400 E65.06704
G1 F240 Z0.6
G0 F6000 X95.452 Y96.592 Z0.6
M204 S1000
G1 F240 Z0.2
G1 F2400 E66.06704
G1 F974.2 X86.505 Y104.106 E66.61992
M204 S500
G1 F2400 E65.61992
G1 F240 Z0.6
G0 F6000 X84.076 Y105.523 Z0.6
M204 S1000
G1 F240 Z0.2
G1 F2400 E66.61992
G1 F983.2 X73.124 Y109.512 E67.1664
M204 S500
G1 F2400 E66.1664
G1 F240 Z0.6
G0 F6000 X70.382 Y110.013 Z0.6
M204 S1000
G1 F240 Z0.2
G1 F2400 E67.1664
G1 F976 X58.697 Y110.017 E67.71832
M204 S500
G1 F2400 E66.71832
G1 F240 Z0.6
G0 F6000 X55.944 Y109.549 Z0.6
M204 S1000
G1 F240 Z0.2
G1 F2400 E67.71832
G1 F979.6 X44.972 Y105.56 E68.26772
M204 S500
G1 F2400 E67.26772
G1 F240 Z0.6
G0 F6000 X42.541 Y104.174 Z0.6
M204 S1000
G1 F240 Z0.2
G1 F2400 E68.26772
G1 F976 X33.593 Y96.672 E68.81925
M204 S500
G1 F2400 E67.81925
G1 F240 Z0.6
G0 F6000 X31.786 Y94.546 Z0.6
M204 S1000
G1 F240 Z0.2
G1 F2400 E68.81925
G1 F977.8 X25.944 Y84.431 E69.36996
M204 S500
G1 F2400 E68.36996
G1 F240 Z0.6
G0 F6000 X24.975 Y81.818 Z0.6
M204 S1000
G1 F240 Z0.2
G1 F2400 E69.36996
G1 F976 X22.941 Y70.315 E69.92171
M204 S500
G1 F2400 E68.92171
G1 F240 Z0.6
G0 F6000 X22.924 Y67.52 Z0.6
M204 S1000
G1 F240 Z0.2
G1 F2400 E69.92171
G1 F977.8 X24.949 Y56.022 E70.47214
M204 S500
G1 F2400 E69.47214
G1 F240 Z0.6
G0 F6000 X25.896 Y53.384 Z0.6
M204 S1000
G1 F240 Z0.2
G1 F2400 E70.47214
G1 F981.4 X31.726 Y43.274 E71.02033
M204 S500
G1 F2400 E70.02033
G1 F240 Z0.6
G0 F6000 X73.056 Y28.187 Z0.6
M204 S1000
G1 F240 Z0.2
G1 F2400 E71.02033
G1 F986.9 X83.984 Y32.16 E71.56346
M204 S500
G1 F2400 E70.56346
G1 F240 Z0.6
G0 F6000 X97.228 Y43.274 Z0.6
M204 S1000
G1 F240 Z0.2
G1 F2400 E71.56346
G1 F994.4 X103.011 Y53.289 E72.09961
M204 S500
G1 F2400 E71.09961
G1 F240 Z0.6
G0 F6000 X66.144 Y78.402 Z0.6
M204 S1000
G1 F240 Z0.2
G1 F2400 E72.09961
G1 F1200 X62.912 Y78.41 E72.22377
G1 X62.754 Y78.389 E72.22989
G1 X59.633 Y77.251 E72.3575
G1 X57.119 Y75.151 E72.48334
G1 X57.043 Y75.068 E72.48767
G1 X55.41 Y72.248 E72.61285
G1 X55.351 Y72.086 E72.61947
G1 X54.79 Y68.882 E72.74443
G1 X54.797 Y68.763 E72.74901
G1 X55.352 Y65.63 E72.87124
G1 X55.41 Y65.471 E72.87774
G1 X57.02 Y62.685 E73.00135
G1 X57.108 Y62.581 E73.00658
G1 X59.631 Y60.472 E73.13291
G1 X59.715 Y60.432 E73.13648
G1 X62.718 Y59.339 E73.25925
G1 X62.831 Y59.317 E73.26367
G1 X66.08 Y59.313 E73.38848
G1 X66.253 Y59.344 E73.39523
G1 X69.245 Y60.434 E73.51756
G1 X69.345 Y60.485 E73.52187
G1 X71.885 Y62.616 E73.64924
G1 X71.919 Y62.66 E73.65138
G1 X73.545 Y65.469 E73.77606
G1 X73.603 Y65.628 E73.78256
G1 X74.165 Y68.827 E73.90734
G1 X74.159 Y68.955 E73.91226
G1 X73.598 Y72.109 E74.03532
G1 X73.536 Y72.267 E74.04184
G1 X71.936 Y75.035 E74.16466
G1 X71.836 Y75.152 E74.17058
G1 X69.346 Y77.234 E74.29526
G1 X69.296 Y77.262 E74.29746
G1 X66.242 Y78.379 E74.42239
G1 X66.144 Y78.402 E74.42625
M204 S500
G1 F2400 E73.42625
G1 F240 Z0.6
G0 F6000 X71.743 Y110.064 Z0.6
M204 S1000
G1 F240 Z0.2
G1 F2400 E74.42625
G1 F1200 X72.673 Y109.725 E74.46428
G1 F1086.4 X73.124 Y109.512 E74.48544
G1 F1019.3 X73.002 Y109.512 E74.49096
G1 F1118.6 X72.64 Y109.435 E74.50621
G1 F1200 X72.494 Y109.353 E74.51264
G1 X72.337 Y109.155 E74.52235
G1 X72.302 Y109.093 E74.52509
G1 X67.281 Y80.674 E75.63372
G1 X67.293 Y80.4 E75.64426
G1 X67.37 Y80.224 E75.65164
G1 X67.438 Y80.137 E75.65588
G1 X67.575 Y80.026 E75.66266
G1 X67.683 Y79.976 E75.66723
